static/icons/US.svg

<svg width="24" height="24" viewBox="0 0 24 24" fill="none" xmlns="http://www.w3.org/2000/svg">
<g clip-path="url(#clip0_5_76)">
<path d="M12 24C18.6274 24 24 18.6274 24 12C24 5.37258 18.6274 0 12 0C5.37258 0 0 5.37258 0 12C0 18.6274 5.37258 24 12 24Z" fill="#F0F0F0"/>
<path d="M11.4783 12H24C24 10.9169 23.8556 9.86767 23.5866 8.86956H11.4783V12ZM11.4783 5.73916H22.2387C21.5049 4.54252 20.5679 3.48314 19.4698 2.6087H11.4783V5.73916ZM12 24C14.8242 24 17.42 23.0239 19.4698 21.3913H4.53019C6.58003 23.0239 9.17583 24 12 24ZM1.76128 18.2609H22.2387C22.8355 17.2873 23.2895 16.233 23.5866 15.1304H0.413391C0.710526 16.233 1.16446 17.2873 1.76128 18.2609Z" fill="#D80027"/>
<path d="M5.55863 1.87397H6.65217L5.63498 2.61295L6.02353 3.80869L5.00639 3.0697L3.98925 3.80869L4.32487 2.7757C3.42762 3.52316 2.64364 4.39691 1.99744 5.36963H2.34783L1.70034 5.84002C1.59937 6.00852 1.50256 6.17947 1.41 6.35273L1.71919 7.30434L1.14234 6.88523C0.998381 7.19004 0.86745 7.50084 0.749906 7.81678L1.09055 8.86528H2.34783L1.33064 9.60427L1.71919 10.8L0.702047 10.061L0.0927656 10.5037C0.0309857 11.0001 4.53674e-06 11.4998 0 12H12V0C9.62944 0 7.41961 0.687656 5.55863 1.87397ZM6.02353 10.8L5.00639 10.061L3.98925 10.8L4.3778 9.60427L3.36061 8.86528H4.61789L5.00639 7.66955L5.39489 8.86528H6.65217L5.63498 9.60427L6.02353 10.8ZM5.63498 6.10861L6.02353 7.30434L5.00639 6.56536L3.98925 7.30434L4.3778 6.10861L3.36061 5.36963H4.61789L5.00639 4.17389L5.39489 5.36963H6.65217L5.63498 6.10861ZM10.3279 10.8L9.31073 10.061L8.29359 10.8L8.68214 9.60427L7.66495 8.86528H8.92223L9.31073 7.66955L9.69923 8.86528H10.9565L9.93933 9.60427L10.3279 10.8ZM9.93933 6.10861L10.3279 7.30434L9.31073 6.56536L8.29359 7.30434L8.68214 6.10861L7.66495 5.36963H8.92223L9.31073 4.17389L9.69923 5.36963H10.9565L9.93933 6.10861ZM9.93933 2.61295L10.3279 3.80869L9.31073 3.0697L8.29359 3.80869L8.68214 2.61295L7.66495 1.87397H8.92223L9.31073 0.678234L9.69923 1.87397H10.9565L9.93933 2.61295Z" fill="#0052B4"/>
</g>
<defs>
<clipPath id="clip0_5_76">
<rect width="24" height="24" fill="white"/>
</clipPath>
</defs>
</svg>

<svg xmlns="http://www.w3.org/2000/svg" width="24" height="24" fill="none"><g clip-path="url(#a)"><path fill="#F0F0F0" d="M12 24c6.627 0 12-5.373 12-12S18.627 0 12 0 0 5.373 0 12s5.373 12 12 12Z"/><path fill="#D80027" d="M11.478 12H24c0-1.083-.144-2.132-.413-3.13H11.478V12Zm0-6.26h10.76a12.063 12.063 0 0 0-2.768-3.131h-7.992v3.13ZM12 24c2.824 0 5.42-.976 7.47-2.609H4.53A11.948 11.948 0 0 0 12 24ZM1.761 18.26H22.24a11.929 11.929 0 0 0 1.348-3.13H.413a11.93 11.93 0 0 0 1.348 3.13Z"/><path fill="#0052B4" d="M5.559 1.874h1.093l-1.017.739.389 1.196-1.018-.74-1.017.74.336-1.033A12.066 12.066 0 0 0 1.997 5.37h.35l-.647.47c-.1.169-.197.34-.29.513l.31.951-.578-.419c-.144.305-.275.616-.392.932l.34 1.048h1.258l-1.017.74.388 1.195-1.017-.739-.61.443C.032 11 0 11.5 0 12h12V0C9.63 0 7.42.688 5.559 1.874Zm.465 8.926-1.018-.739-1.017.739.389-1.196-1.017-.739h1.257l.388-1.195.389 1.195h1.257l-1.017.74.389 1.195Zm-.389-4.691.389 1.195-1.018-.739-1.017.74.389-1.196-1.017-.74h1.257l.388-1.195.389 1.196h1.257l-1.017.739Zm4.693 4.691-1.017-.739-1.017.739.388-1.196-1.017-.739h1.257l.389-1.195.388 1.195h1.258l-1.018.74.389 1.195Zm-.389-4.691.389 1.195-1.017-.739-1.017.74.388-1.196-1.017-.74h1.257l.389-1.195.388 1.196h1.258l-1.018.739Zm0-3.496.389 1.196-1.017-.74-1.017.74.388-1.196-1.017-.739h1.257L9.311.678l.388 1.196h1.258l-1.018.739Z"/></g><defs><clipPath id="a"><path fill="#fff" d="M0 0h24v24H0z"/></clipPath></defs></svg>
